assets/images/svg/calendar.svg

<svg width="20" height="20" viewBox="0 0 20 20" fill="none" xmlns="http://www.w3.org/2000/svg">
<path d="M6.66699 1.66666V4.16666" stroke="#808B97" stroke-width="1.2" stroke-miterlimit="10" stroke-linecap="round" stroke-linejoin="round"/>
<path d="M13.333 1.66666V4.16666" stroke="#808B97" stroke-width="1.2" stroke-miterlimit="10" stroke-linecap="round" stroke-linejoin="round"/>
<path d="M2.91699 7.57501H17.0837" stroke="#808B97" stroke-width="1.2" stroke-miterlimit="10" stroke-linecap="round" stroke-linejoin="round"/>
<path d="M17.5 7.08332V14.1667C17.5 16.6667 16.25 18.3333 13.3333 18.3333H6.66667C3.75 18.3333 2.5 16.6667 2.5 14.1667V7.08332C2.5 4.58332 3.75 2.91666 6.66667 2.91666H13.3333C16.25 2.91666 17.5 4.58332 17.5 7.08332Z" stroke="#808B97" stroke-width="1.2" stroke-miterlimit="10" stroke-linecap="round" stroke-linejoin="round"/>
<path d="M13.0791 11.4167H13.0866" stroke="#808B97" stroke-width="1.2" stroke-linecap="round" stroke-linejoin="round"/>
<path d="M13.0791 13.9167H13.0866" stroke="#808B97" stroke-width="1.2" stroke-linecap="round" stroke-linejoin="round"/>
<path d="M9.99607 11.4167H10.0036" stroke="#808B97" stroke-width="1.2" stroke-linecap="round" stroke-linejoin="round"/>
<path d="M9.99607 13.9167H10.0036" stroke="#808B97" stroke-width="1.2" stroke-linecap="round" stroke-linejoin="round"/>
<path d="M6.91209 11.4167H6.91957" stroke="#808B97" stroke-width="1.2" stroke-linecap="round" stroke-linejoin="round"/>
<path d="M6.91209 13.9167H6.91957" stroke="#808B97" stroke-width="1.2" stroke-linecap="round" stroke-linejoin="round"/>
</svg>

<svg xmlns="http://www.w3.org/2000/svg" width="20" height="20" fill="none" viewBox="0 0 20 20"><path stroke="#808b97" stroke-linecap="round" stroke-linejoin="round" stroke-miterlimit="10" stroke-width="1.2" d="M6.667 1.667v2.5M13.333 1.667v2.5M2.917 7.575h14.167M17.5 7.083v7.084c0 2.5-1.25 4.166-4.167 4.166H6.667c-2.917 0-4.167-1.666-4.167-4.166V7.083c0-2.5 1.25-4.166 4.167-4.166h6.666c2.917 0 4.167 1.666 4.167 4.166"/><path stroke="#808b97" stroke-linecap="round" stroke-linejoin="round" stroke-width="1.2" d="M13.08 11.417h.007M13.08 13.917h.007M9.996 11.417h.008M9.996 13.917h.008M6.912 11.417h.008M6.912 13.917h.008"/></svg>
